main/svg/diagonalChecks4x.svg

<svg xmlns="http://www.w3.org/2000/svg" width="32" height="128"><path d="M0 0v2l2-2Zm7 0 2 2 2-2Zm14 0 2 2 2-2Zm9 0 2 2V0ZM9 2 2 9l7 7 7-7-7-7Zm14 0-7 7 7 7 7-7ZM0 7v4l2-2Zm32 0-2 2 2 2ZM9 16l-7 7 7 7 7-7 7 7 7-7-7-7-7 7Zm-9 5v4l2-2Zm32 0-2 2 2 2ZM0 30v4l2-2-2-2Zm9 0-2 2 2 2 2-2-2-2Zm14 0-2 2 2 2 2-2-2-2Zm9 0-2 2 2 2ZM9 34l-7 7 7 7 7-7Zm14 0-7 7 7 7 7-7ZM0 39v4l2-2Zm32 0-2 2 2 2ZM9 48l-7 7 7 7 7-7 7 7 7-7-7-7-7 7-7-7Zm-9 5v4l2-2Zm32 0-2 2 2 2ZM0 62v4l2-2-2-2Zm9 0-2 2 2 2 2-2-2-2Zm14 0-2 2 2 2 2-2-2-2Zm9 0-2 2 2 2ZM9 66l-7 7 7 7 7-7-7-7Zm14 0-7 7 7 7 7-7ZM0 71v4l2-2Zm32 0-2 2 2 2ZM9 80l-7 7 7 7 7-7 7 7 7-7-7-7-7 7Zm-9 5v4l2-2Zm32 0-2 2 2 2ZM0 94v4l2-2-2-2Zm9 0-2 2 2 2 2-2-2-2Zm14 0-2 2 2 2 2-2-2-2Zm9 0-2 2 2 2ZM9 98l-7 7 7 7 7-7-7-7Zm14 0-7 7 7 7 7-7Zm-23 5v4l2-2Zm32 0-2 2 2 2Zm-23 9-7 7 7 7 7-7 7 7 7-7-7-7-7 7Zm-9 5v4l2-2Zm32 0-2 2 2 2Zm-32 9v2h2l-2-2Zm9 0-2 2h4l-2-2Zm14 0-2 2h4l-2-2Zm9 0-2 2h2Zm0 0" style="stroke:none;fill-rule:nonzero;fill:#000;fill-opacity:1"/></svg>

<svg xmlns="http://www.w3.org/2000/svg" width="32" height="128"><path d="M0 0v2L2 0Zm7 0 2 2L11 0Zm14 0 2 2L25 0Zm9 0L32 2V0ZM9 2l-7 7L9 16l7-7-7-7Zm14 0-7 7L23 16 30 9ZM0 7v4l2-2Zm32 0-2 2L32 11ZM9 16l-7 7 7 7L16 23l7 7 7-7-7-7L16 23ZM0 21v4l2-2Zm32 0-2 2L32 25ZM0 30v4L2 32 0 30Zm9 0L7 32l2 2L11 32h-0l-2-2Zm14 0L21 32H21l2 2L25 32l-2-2Zm9 0L30 32 32 34ZM9 34 2 41l7 7 7-7Zm14 0L16 41 23 48l7-7ZM0 39V43l2-2Zm32 0-2 2L32 43ZM9 48l-7 7 7 7L16 55l7 7 7-7-7-7L16 55 9 48ZM0 53v4l2-2Zm32 0-2 2L32 57ZM0 62v4L2 64 0 62Zm9 0L7 64l2 2L11 64h-0l-2-2Zm14 0L21 64H21l2 2L25 64l-2-2Zm9 0L30 64 32 66ZM9 66l-7 7L9 80l7-7L9 66Zm14 0-7 7L23 80l7-7ZM0 71v4l2-2Zm32 0-2 2L32 75ZM9 80l-7 7 7 7L16 87l7 7 7-7-7-7L16 87ZM0 85v4l2-2Zm32 0-2 2L32 89ZM0 94v4L2 96 0 94Zm9 0L7 96l2 2L11 96h-0l-2-2Zm14 0L21 96H21l2 2L25 96l-2-2Zm9 0L30 96 32 98ZM9 98l-7 7L9 112l7-7L9 98Zm14 0-7 7L23 112l7-7ZM0 103v4l2-2Zm32 0-2 2L32 107Zm-23 9-7 7 7 7L16 119l7 7 7-7-7-7L16 119ZM0 117v4l2-2Zm32 0-2 2L32 121Zm-32 9V128h2L0 126Zm9 0L7 128h4l-2-2Zm14 0L21 128H25l-2-2Zm9 0L30 128H32Zm0 0" style="stroke:none;fill-rule:nonzero;fill:#000;fill-opacity:1"/></svg>
